assets/time-icon.svg

<svg height="36" viewBox="0 0 36 36" width="36" xmlns="http://www.w3.org/2000/svg"><path d="m43 61c9.8470588 0 18-8.1705882 18-18 0-9.8470588-8.1705882-18-18.0176471-18-9.8294117 0-17.9823529 8.1529412-17.9823529 18 0 9.8294118 8.1705882 18 18 18zm-.0176471-16.0941176h-9.2117647c-.7058823 0-1.2352941-.5294118-1.2352941-1.2352942 0-.6882353.5294118-1.217647 1.2352941-1.217647h7.9941177v-10.6764706c0-.6882353.5294117-1.2176471 1.217647-1.2176471s1.2352942.5294118 1.2352942 1.2176471v11.8941176c0 .7058824-.5470589 1.2352942-1.2352942 1.2352942z" fill="#fff" fill-opacity=".5" transform="translate(-25 -25)"/></svg>

<?xml version="1.0" encoding="UTF-8"?>
<svg width="36px" height="36px" viewBox="0 0 36 36" version="1.1" xmlns="http://www.w3.org/2000/svg" xmlns:xlink="http://www.w3.org/1999/xlink">
    <title>􀐬</title>
    <g id="Web" stroke="none" stroke-width="1" fill="none" fill-rule="evenodd" fill-opacity="0.5">
        <g id="Artboard" transform="translate(-1339.000000, -856.000000)" fill="#FFFFFF" fill-rule="nonzero">
            <g id="2x_wall" transform="translate(1314.000000, 831.000000)">
                <path d="M43,61 C52.8470588,61 61,52.8294118 61,43 C61,33.1529412 52.8294118,25 42.9823529,25 C33.1529412,25 25,33.1529412 25,43 C25,52.8294118 33.1705882,61 43,61 Z M42.9823529,44.9058824 L33.7705882,44.9058824 C33.0647059,44.9058824 32.5352941,44.3764706 32.5352941,43.6705882 C32.5352941,42.9823529 33.0647059,42.4529412 33.7705882,42.4529412 L41.7647059,42.4529412 L41.7647059,31.7764706 C41.7647059,31.0882353 42.2941176,30.5588235 42.9823529,30.5588235 C43.6705882,30.5588235 44.2176471,31.0882353 44.2176471,31.7764706 L44.2176471,43.6705882 C44.2176471,44.3764706 43.6705882,44.9058824 42.9823529,44.9058824 Z" id="􀐬"></path>
            </g>
        </g>
    </g>
</svg>
